!!!COM: Chopin, Fryderyk
!!!OTL: Nocturne No. 2.
!!!OPS: Op. 9
!!!OPR: Trois Nocturnes 
!!!OCL: Wessel & Co.
!!!NIFC-rismID: 1001004317
!!!OMD: Met: [quarter] = 132
!!!OMD: Andante
!!!system-decoration: {(s1,s2)}
**kern	**kern	**dynam
*part1	*part1	*part1
*staff2	*staff1	*
*clefF4	*clefG2	*
*k[b-e-a-]	*k[b-e-a-]	*
*M12/8	*M12/8	*
*	*	*
!	!LO:TX:b:t=dolce.	!
8r	8b-	.
=1	=1	=1
*ped	*	*
!	!LO:TX:b:t=espr.	!
!LO:TX:b:t=złamana belka	!	!
8EE-'>L	[4.gg	.
(8e- 8G	.	.
*Xped	*	*
8gJ 8e- 8B-)	.	.
*ped	*	*
8E-'>L	(8ggL]	.
(8d 8A-	8ff	.
*Xped	*	*
8a-J 8d 8c-X)	8ggJ	.
*ped	*	*
!LO:TX:b:t=złamana belka	!	!
8EE-'>L	4.ff	.
(8e- 8G	.	.
*Xped	*	*
8gJ 8e- 8B-)	.	.
*ped	*	*
!LO:TX:b:t=złamana belka	!	!
8DD'>L	4ee-)	.
(8e- 8G	.	.
*Xped	*	*
8gJ 8e- 8B-)	(8b-	.
=2	=2	=2
*ped	*	*
!LO:TX:b:t=złamana belka	!	!
8CCL	4gg	.
8en 8G	.	<
*Xped	*	*
8gJ 8e 8B-	8cc$	.
*ped	*	*
8CL	4ccc	[
8e 8G	.	.
*Xped	*	*
8b-J 8e 8c	8gg	.
*ped	*	*
!LO:TX:b:t=złamana belka	!	!
8FFL	4.bb-	.
8d-X 8F	.	.
*Xped	*	*
8eJ 8d- 8B-	.	.
*ped	*	*
!LO:TX:b:t=złamana belka	!	!
8FFL	4aa-	.
8c 8F	.	.
*Xped	*	*
8fJ 8c 8A-	8gg)	.
=3	=3	=3
*ped	*	*
8BB-L	4.ff	.
8d 8F	.	.
*Xped	*	*
8a-J 8d 8B-	.	.
*ped	*	*
8BBnL	(4gg	.
8f 8G	.	.
*Xped	*	*
8gJ 8f 8d	8dd)	.
*ped	*	*
8CL	4.ee-	.
8e- 8G	.	.
*Xped	*	*
8gJ 8e- 8c	.	.
*ped	*	*
8AAnL	4.cc	.
8e- 8G-X	.	.
*Xped	*	*
8g-XJ 8e- 8c	.	.
=4	=4	=4
!!linebreak:original
*ped	*	*
8BB-yL	(8b-L	.
8e- 8F	8ddd)	.
*Xped	*	*
8a-J 8e- 8B-	(8cccJ	.
*ped	*	*
!LO:TX:b:t=złamana belka	!	!
8BBB-L	16bb-LL	.
.	16aa-	.
8d 8F	16gg	.
.	16aa-)	f
*Xped	*	*
8a-J 8B-	(16cc	.
.	16ddJJ	<
*ped	*	*
8EE-L	4.ee-)	[
8e- 8Gny	.	.
8gnyJ 8e- 8B-	.	.
8E-L	4r	.
8e- 8G	.	.
8gJ 8e- 8B-	(8b-	.
=5	=5	=5
8E-'L	4.gg	p
(8e- 8G	.	.
*Xped	*	*
8gJ 8e- 8B-)	.	.
*ped	*	*
8E-'L	16ffLL)	.
.	16gg	.
(8d 8A-	16ffM	.
.	16een	.
*Xped	*	*
8a-J 8d 8c-X)	16ff	.
.	16ggJJ	.
*ped	*	*
8E-'L	8ff	.
(8e- 8G	[4ee-X^<	.
*Xped	*	*
8gJ 8e- 8B-)	.	.
*ped	*	*
8D'L	16ee-LL]	.
.	16ff	.
(8e- 8G	16ee-M	.
.	16dd	.
*Xped	*	*
8gJ 8e- 8B-)	16ee-	.
.	16ffJJ	.
=6	=6	=6
*ped	*	*
8CL	16ggLL	<
.	16bn	.
8en 8G	16cc	.
.	(16dd^	.
8gJ 8e 8B-	16cc)	.
!	!LO:TX:i:t=cres.	!
.	(16ff^J	.
8CL	16eenL)	.
.	(16aa-^	.
8e 8G	16gg)	.
.	(16ddd	.
*Xped	*	*
8b-J 8e 8c	16ccc	.
.	16ggJJ	[
*ped	*	*
!LO:TX:b:t=złamana belka	!	!
8FFL	4.bb-)	>
8d-X 8F	.	.
*Xped	*	*
8eJ 8d- 8B-	.	]
*ped	*	*
!LO:TX:b:t=złamana belka	!	!
8FFL	4aa-	.
8c 8F	.	.
*Xped	*	*
8fJ 8c 8A-	8gg	.
=7	=7	=7
!!linebreak:original
*ped	*	*
8BB-L	4.ffTM	.
8d 8F	.	.
*Xped	*	*
8a-J 8d 8B-	.	.
.	16qqee-/LL	.
.	16qqff/JJ	.
*ped	*	*
8BBnL	8ggL	.
8f 8G	(8gg	.
*Xped	*	*
8gJ 8f 8d	8ddJ)	.
*ped	*	*
8CL	(4.ee-	.
8e- 8G	.	.
*Xped	*	*
8gJ 8e- 8c	.	.
*ped	*	*
8AAnL	4.cc)	.
8e- 8G-X	.	.
*Xped	*	*
8g-XJ 8e- 8c	.	.
=8	=8	=8
*ped	*	*
8BB-L	(8b-L	.
8e- 8F	8ddd)	.
*Xped	*	*
8a-J 8e- 8B-	(8ccc'J	.
*ped	*	*
!LO:TX:b:t=złamana belka	!	!
8BBB-L	16bb-'LL	.
.	16aa-'	.
8d 8F	16gg'	.
.	16aa-'	.
.	16qqaa-/	.
*Xped	*	*
8a-J 8B-	16cc	.
.	16ddJJ)	.
*ped	*	*
!LO:TX:b:t=złamana belka	!	!
8EE-L	[4.ee-	.
8e- 8G	.	.
8gJ 8e- 8B-	.	.
8E-L	8ee-L]	.
8e- 8G	8dd	.
*Xped	*	*
8gJ 8e- 8B-	8ee-J	.
=9	=9	=9
*ped	*	*
8BB-'L	4.ff	p
(8d 8F	.	.
8fJ 8d 8B-)	.	.
8BB-'L	(4gg	>
(8d 8F	.	]
*Xped	*	*
8fJ 8d 8B-)	8ff)	.
*ped	*	*
8AAn'L	(4.ff	pp
(8c 8F	.	.
8fJ 8c)	.	.
8AA'L	4.cc)	.
(8c 8F	.	.
*Xped	*	*
8fJ 8c)	.	.
=10	=10	=10
!!linebreak:original
*ped	*	*
!	!LO:TX:b:t=poco ritard.:	!
8AA-XL	(8ee-'L	.
8c 8E-	8ee-'	.
8e-J 8c 8A-	8ee-'J	.
!LO:TX:b:t=złamana belka	!	!
8AAA-L\	8ee-L)	.
8c-X 8E-	(16ddnL	.
.	16ee-	.
*Xped	*	*
8e-J 8c- 8A-	16.ff	.
.	32ee-JJk	.
*ped	*	*
!LO:TX:b:t=złamana belka	!	!
8EE-'<L	4.ee-)	.
(8e- 8G	.	.
8gJ 8e- 8B-)	.	.
8E-'L	4.b-	.
(8e- 8G	.	.
!	!LO:TX:b:i:t=A Tempo. 	!
*Xped	*	*
8gJ 8e- 8B-)	.	.
=11	=11	=11
*ped	*	*
!LO:TX:b:t=złamana belka	!	!
8EEnL	(>4.bb-	f
8d-X 8Eny	.	.
*Xped	*	*
8gJ 8d- 8B-	.	.
*ped	*	*
!LO:TX:b:t=złamana belka	!	!
8EEL	4aan	.
8c 8Eny	.	.
*Xped	*	*
8gJ 8c 8B-	8gg)	.
*ped	*	*
!LO:TX:b:t=złamana belka	!	!
8FFL	(>4.ff 4.an	.
8eny 8F	.	.
*Xped	*	*
8anJ 8eny 8c	.	.
*ped	*	*
!LO:TX:b:t=złamana belka	!	!
8GGL	4.dd 4.b-)	.
8d- 8G	.	.
*Xped	*	*
8b-J 8d- 8B-	.	.
=12	=12	=12
*ped	*	*
!LO:TX:b:t=złamana belka	!	!
8CCL	4.ee-/ 4.g/	.
8e- 8G	.	.
*Xped	*	*
8gJ 8e- 8c	.	.
*ped	*	*
!LO:TX:b:t=złamana belka	!	!
8FFL	(8dd'/L 8an/	.
8e- 8F	8cc' 8a	.
*Xped	*	*
8fJ 8e- 8c	8dd'J 8a	.
8dL 8B-	8b-L 8f)	.
!	!LO:TX:b:i:t=poco Rall.	!
!	!	!LO:HP:a
8d#X 8An	(8bn' 8f#X	<
8G#XJ	8b'J 8en	.
8GnL	8cc'L 8b-X 8e	.
8e-X 8c 8F	8cc' 8an 8fn	.
8fJ 8B-	8dd'J 8a-X)	.
.	.	[
=13	=13	=13
!!linebreak:original
!	!LO:TX:b:t=A Tempo.	!
.	(<16qqg/LL	.
.	16qqb-/	.
.	16qqee-)/JJ	.
*ped	*	*
!LO:TX:b:t=złamana belka	!	!
8EE-L	4gg	fz
8e- 8G	.	p
*Xped	*	*
8gJ 8e- 8B-	(16an/LL	.
.	16b-JJ	.
8E-L	16cc-XLL	.
.	16b-	.
8d 8A-	16cc#X	.
.	16dd	.
8a-J 8d 8B-	16.gg	.
.	32ffJJk)	.
8E-L	4ff	>
8e- 8G	.	]
8gJ 8e- 8B-	[8ee-	.
8DL	16ee-LL]	.
.	16ff	.
8e- 8G	16ee-M	.
.	16dd	.
8gJ 8e- 8B-	16ee-	.
.	(>16ffJJ	.
=14	=14	=14
8CL	16ggLL)	<
.	(>16bn	.
8en 8G	16cc)	.
.	(16dd-X	.
8gJ 8e 8B-	16cc)	.
.	(16ffJJ	[
!	!LO:TX:b:t=cres.	!
8CL	16eenLL)	.
.	(16aa-	.
8e 8G	16gg)	.
.	(16ddd-y	.
8b-J 8e 8c	16ccc	.
.	16ggJJ	.
!LO:TX:b:t=złamana belka	!	!
8FFL	4.bbny)	ff
8d-X 8F	.	.
8eJ 8d- 8B-	.	.
!LO:TX:b:t=złamana belka	!	!
8FFL	4aa-	>
8c 8F	.	.
8fJ 8c 8A-	8gg	]
=15	=15	=15
8BB-L	4.ffT	p
8d 8F	.	.
8a-J 8d 8B-	.	.
.	16qqee-/LL	.
.	16qqff/JJ	.
8BBnL	8gg'L	.
8f 8G	(8gg	>
8gJ 8f 8d	8ddJ)	]
8CL	4.ee-	<
8e- 8G	.	.
8gJ 8e- 8c	.	.
8AAnL	4.cc	.
8e- 8G-X	.	[
8g-XJ 8e- 8c	.	.
=16	=16	=16
!!linebreak:original
8BB-L	(8b-L	.
8e- 8F	8ddd)	.
8a-J 8e- 8B-	(8ccc#X'J	.
*	*Xtuplet	*
!	!LO:TX:b:i:t=podwójna belka w całej grupie	!
!	!LO:TX:a:t=4	!
!LO:TX:b:t=złamana belka	!	!
8BBB-L	104%3cccn'LL	.
!	!LO:TX:a:t=4	!
.	104%3bbn'	.
!	!LO:TX:a:t=3	!
.	104%3bb-X'	.
!	!LO:TX:a:t=4	!
.	104%3aan'	.
.	104%3aa-X'	.
8d 8F	.	.
.	104%3ff'	.
.	104%3dd'	.
.	104%3cc-X^>)	.
.	104%3b-	.
8a-J 8d 8B-	.	.
.	104%3dd	.
!	!LO:TX:a:t=4	!
.	104%3gg	.
!	!LO:TX:a:t=3	!
.	104%3ff	.
!	!LO:TX:a:t=1	!
.	104%3ee-JJ	.
*	*tuplet	*
!	!LO:TX:a:t=+	!
!LO:TX:b:t=złamana belka	!	!
8EE-L	[4.ee-	.
8e- 8G	.	.
8gJ 8B-	.	.
8E-L	8ee-L]	.
8e- 8G	8dd	.
8gJ 8B-	8ee-J	.
=17	=17	=17
8BB-L	(4.ff	.
8d 8F	.	.
8fJ 8d 8B-	.	.
8BB-L	4gg	.
8d 8F	.	.
8fJ 8d 8B-	8ff)	.
8AAnL	(4.ff	.
8c 8F	.	.
8fJ 8c	.	.
8AAL	4.cc)	.
8c 8F	.	.
8fJ 8c	.	.
=18	=18	=18
8AA-XL	(16ee-L	.
.	8ee-	.
8c 8E-	.	.
!	!LO:TX:a:t=4	!
.	8ee-	.
8e-J 8c 8A-	.	.
.	16ee-J	.
!LO:TX:b:t=złamana belka	!	!
8AAA-L\	8ee-L	.
8c-X 8E-	16ddL	.
.	16ee-	.
8e-J 8c- 8A-	16.ff	.
.	32ee-JJk	.
!LO:TX:b:t=złamana belka	!	!
8EE-L	4.ee-)	.
8e- 8G	.	.
8gJ 8e- 8B-	.	.
8E-L	4.b-/	<
8e- 8G	.	[
8gJ 8e- 8B-	.	.
=19	=19	=19
!!pagebreak:original
!LO:TX:b:t=złamana belka	!	!
8EEnL	(4.bb-	f
8d-X 8Eny	.	.
8gJ 8d- 8B-	.	.
!LO:TX:b:t=złamana belka	!	!
8EEL	4aan)	.
8c 8Eny	.	.
8gJ 8c 8B-	8gg	.
!LO:TX:b:t=złamana belka	!	!
8FFL	4.ff 4.an	>
8eny 8F	.	.
8anJ 8eny 8c	.	.
!LO:TX:b:t=złamana belka	!	!
8GGL	4.dd 4.b-	]
8d- 8G	.	.
8b-J 8d- 8B-	.	.
=20	=20	=20
!LO:TX:b:t=złamana belka	!	!
8CCL	4.ee- 4.g	p
8e- 8G	.	.
8gJ 8e- 8c	.	.
!LO:TX:b:t=złamana belka	!	!
8FFL	(8dd'/L 8an/	.
8e- 8F	8cc' 8a	.
8fJ 8e- 8c	8dd'J 8a)	.
!	!	!LO:HP:a
8dL 8B-	(8b-'L 8f	<
!	!LO:TX:i:t=poco Rall.	!
8d#X 8An	8bn' 8f#X	.
8G#XJ	8b'J 8en	.
8GnL	8cc'L 8b-X 8e	.
8e-X 8c 8F	8cc' 8a 8fn	.
8fJ 8B-	8dd'J 8a-X)	.
.	.	[
=21	=21	=21
!	!LO:TX:b:i:t=A Tempo.	!
.	(16qg/LL	.
.	16qb-/	.
.	16qee-/JJ)	fz
!LO:TX:b:t=złamana belka	!	!
8EE-'L	4gg	.
(>8e- 8G	.	p
8gJ 8e- 8B-)	(16an/LL	.
.	16b-JJ	.
8E-'L	16cc-X^>LL	.
.	16b-	.
(8d 8A-	16cc#X	.
.	16dd	.
8a-J 8d 8B-)	16.gg^>	.
.	32ffJJk)	.
8E-'L	4ff	>
(8e- 8G	.	]
8gJ 8e- 8B-)	[8ee-	.
(8DL	16ee-LL]	<
.	16ff	.
8e- 8G	16ee-T	.
.	16dd	.
8gJ 8e- 8B-)	16ee-	.
.	(16ffJJ	[
=22	=22	=22
!!linebreak:original
8C'L	16ggLL)	.
.	(>16bn	.
(8en 8G	16ccny)	.
.	(16dd-X^	.
8gJ 8e 8B-)	16cc)	.
.	(16ff^JJ	.
8C'L	16eenLL)	<
.	(16aa-^	.
(>8e 8G	16gg)	.
.	(16dddy	.
8b-J 8e 8c)	16ccc	.
.	16ggJJ	[
.	16qqgg/	.
!LO:TX:b:t=złamana belka	!	!
8FFL	4.bbny)	.
8d-X 8B- 8F	.	.
8enJ 8d- 8B-	.	.
!LO:TX:b:t=złamana belka	!	!
8FFL	4aa-	>
8c 8F	.	]
8fJ 8c 8A-	8gg	.
=23	=23	=23
8BB-L	4.ffT	.
8d 8F	.	.
8a-J 8d 8B-	.	.
.	(<16qqee-/LL	.
.	16qqff)/JJ	.
8BBnL	8gg`L	.
8f 8G	(>8gg	.
8gJ 8f 8d	8ddJ)	.
8CL	(>4.ee-	.
8e- 8G	.	.
8gJ 8e- 8c	.	.
8AAnL	4.cc)	.
8e- 8G-X	.	.
8g-XJ 8e- 8c	.	.
=24	=24	=24
8BB-L	(16b-KL	.
.	8ddd'	.
8e- 8F	.	.
.	16.ccc#X'L	.
8a-J 8e- 8B-	.	.
.	16cccn'	.
.	32bbn'JJk	.
!LO:TX:a:t=dim.	!	!
!LO:TX:b:t=złamana belka	!	!
8BBB-L	16bb-X'LL	.
.	16aan'JJ)	.
8d 8F	32aa-X`LLL	.
.	(32an	.
.	32b-	.
.	32bn	.
*	*Xtuplet	*
8a-J 8d 8B-	48cc	.
.	48cc#X	.
.	48dd	.
.	48gg	.
!	!LO:TX:a:t=3	!
.	48ff	.
.	48ee-JJJ)	.
*	*tuplet	*
!	!LO:TX:b:t=odwrocona polnuta	!
!LO:TX:b:t=złamana belka	!	!
8EE-L	2.ee-^	.
8e- 8G	.	.
8gJ 8e- 8B-	.	.
8E-L	.	.
8e- 8G	.	.
8gJ 8e- 8B-	.	.
=25-	=25-	=25-
!!linebreak:original
*ped	*	*
!LO:TX:b:t=złamana belka	!	!
8EE-L	4.ee-	p
8e- 8c-X 8A-	.	.
8a-J 8e- 8c-	.	.
8E-L	(8ffL	.
8e- 8c- 8A-	8ee-	.
*Xped	*	*
8a-J 8e- 8c-	8ffJ	.
*ped	*	*
!LO:TX:b:t=złamana belka	!	!
8EE-L	2.gg)	.
(8e- 8G	.	.
8gJ 8e- 8B-)	.	.
8E-'L	.	.
(8e- 8G	.	.
*Xped	*	*
8gJ 8e- 8B-)	.	.
=26	=26	=26
*ped	*	*
!LO:TX:b:t=złamana belka	!	!
8EE-L	[4.ee-	pp
8e- 8c-X 8A-	.	.
8a-J 8e- 8c-	.	.
8E-L	(16ee-LL]	.
.	16ff	.
8e- 8c- 8A-	16ee-)	.
.	(16ff	.
*Xped	*	*
8a-J 8e- 8c-	16ee-	.
!	!LO:TX:b:t=poco rubato.	!
.	16ffJJ	.
*ped	*	*
!LO:TX:b:t=złamana belka	!	!
8EE-L	4gg)	.
8e- 8B- 8G	.	.
8gJ 8e- 8B-	(8ee-$	.
!	!LO:TX:a:t=4	!
8E-L	8eee-L)	.
!	!LO:TX:a:t=4	!
8e- 8G	8ddd	.
!	!LO:TX:b:t=sempre	!
!	!LO:TX:a:t=4	!
*Xped	*	*
8gJ 8e- 8B-	8cccJ	.
=27	=27	=27
*ped	*	*
!	!LO:TX:a:t=3	!
8E-L	4bb-	.
8d 8F	.	.
!	!LO:TX:a:t=4	!
8a-J 8B-	(8aan	pp
8E-L	8aa-XL)	.
8d 8F	(>8cc	.
*Xped	*	*
8a-J 8B-	8dd)J	.
*ped	*	*
8E-L	(>8ee-L	.
8e- 8G	16ffL	.
.	16ee-M	.
*Xped	*	*
8gJ 8B-	16dd	.
!	!LO:TX:b:t=dolcissimo.	!
.	16ee-)JJ	.
.	(<16qqee-/	.
*ped	*	*
8AAnL	8ggg'L)	.
!	!LO:TX:a:t=4	!
8e- 8F	(16fff'L	.
!	!LO:TX:a:t=3	!
.	16eee-'	.
*Xped	*	*
!	!LO:TX:a:t=4	!
8fJ 8e- 8c	16ddd'	.
!	!LO:TX:a:t=4	!
.	16ccc'JJ	.
=28	=28	=28
!!linebreak:original
*ped	*	*
!	!LO:TX:a:t=4	!
8BB-L	8ccc-XL	.
!	!LO:TX:a:t=3	!
8e- 8F	8bb-)	.
*Xped	*	*
!	!LO:TX:a:t=4	!
8a-J 8e- 8B-	8bb--J	.
*ped	*	*
!	!LO:TX:a:t=4	!
!LO:TX:b:t=złamana belka	!	!
8BBB-L	(16bb--LL	.
!	!LO:TX:a:t=3	!
.	16aa-JJ)	.
!	!LO:TX:a:t=3	!
8d 8F	(16aa-LL	.
!	!LO:TX:a:t=4	!
.	16ggJJ)	.
*Xped	*	*
!	!LO:TX:a:t=4	!
8a-J 8d 8B-	(16.ggLL	.
!	!LO:TX:a:t=3	!
.	32ffJJk	.
*ped	*	*
!	!LO:TX:a:t=2	!
!LO:TX:b:t=złamana belka	!	!
8EE-^L	2.ee-)	>
8e- 8G	.	]
8gJ 8e- 8B-	.	.
8E-L	.	.
8e- 8G	.	.
*Xped	*	*
8gJ 8e- 8B-	.	.
=29	=29	=29
*ped	*	*
!LO:TX:b:t=złamana belka	!	!
8AAA-\L	[4.ee-	p
8c-X 8A- 8E-	.	.
8e-J 8c- 8A-	.	.
*	*Xtuplet	*
!	!LO:TX:a:i:t=podwójna belka	!
8a-L 8e- 8c-	64%3ee-LL]	.
.	(>64%3ff	.
.	64%3ee-	.
8e- 8c- 8A-	.	.
.	64%3ff	.
.	64%3ee-)	.
.	(64%3ff	<
*Xped	*	*
8c-J 8A- 8E-	.	.
.	64%3ee-	.
.	64%3ffJJ)	.
*	*tuplet	*
*ped	*	*
!LO:TX:b:t=złamana belka	!	!
8EE-L	4.gg	[
8e- 8G	.	.
8gJ 8e- 8B-	.	.
8E-L	4r	.
8e- 8G	.	.
*Xped	*	*
8gJ 8e- 8B-	8r	.
=30	=30	=30
!	!LO:TX:b:t=con forza.	!
*ped	*	*
!LO:TX:b:t=złamana belka	!	!
8AAA-\L	8ee-`\L	.
8c-X 8A- 8E-	(>16a-L	.
.	16b-	.
8e-J 8c- 8A-	16a-T	.
.	16gJJ	.
8c-L 8A- 8E-	16a-LL	.
.	16cc-X	.
8e- 8c- 8A-	16ee-	.
.	16aa-	.
*Xped	*	*
8c-J 8A- 8E-	16eee-)	.
.	32r	.
.	(32fffJJk	.
*ped	*	*
*	*8va	*
!LO:TX:b:t=złamana belka	!	!
8EE-L	(8gggL	.
8e- 8G	8eee-J))	.
*Xped	*	*
8gJ 8e- 8B-	(4eeee- 4eee-	>
*ped	*	*
8AAnL	.	.
!	!LO:TX:b:t=stretto.	!
8e- 8F	8ddddL 8ddd	]
*Xped	*	*
8fJ 8e- 8c-	8ccccnJ 8cccn)	.
=31	=31	=31
!!linebreak:original
*^	*	*
*ped	*	*	*
8BB-L	2.ryy	8cccc-XL 8ccc-y\	.
8e- 8B- 8F	.	8bbb- 8bb-	.
*Xped	*	*	*
8a-J 8e- 8B-	.	8bbb--/J 8bb--/	.
*ped	*	*	*
8BBnL	.	8aaa-XL 8aa-X	.
8f 8G	.	8ggg 8gg	.
!LO:TX:b:t=(takt rozjechany przez ped.)	!	!	!
*Xped	*	*	*
8gJ 8f 8d	.	8ddd/J 8dd/	.
*ped	*	*	*
8C\L	4.ryy	8eee- 8ee-	.
8e- 8G	.	4.eeee- 4.eee-	>
*Xped	*	*	*
8gJ 8c	.	.	]
*ped	*	*	*
8ryy	8AAn/`>	.	.
8e-/L 8c/	4F	8fffL 8ff/	.
*Xped	*	*	*
8fJ 8e- 8c	.	8ccccJ 8ccc	.
*v	*v	*	*
=32	=32	=32
*ped	*	*
!LO:TX:b:i:t=pojedyncza belka	!	!
!LO:TX:b:t=złamana belka	!	!
*Xtuplet	*	*
(32%3BBB-L	(>2.cccc-X (<2.ccc-X/	ff
32%3BB-	.	.
!	!LO:TX:v:t=senza _ _ Tempo.	!
32%3F	.	.
32%3A-	.	.
32%3d	.	.
32%3B-	.	.
*clefG2	*	*
32%3f	.	.
32%3a-J)	.	.
*tuplet	*	*
!!LO:TX:a:i:t=takt 32 niepoprawnie się wyświetla, zapisana numeracja pod grupami szesnastek w prawej ręce	
!LO:TX:b:t=odwrocona polnuta	!	!
2dd.;	2.bbb-;) 2.bb-)	<
.	16qqcccc-X/LL	.
.	16qqbbb-/	.
.	16qqccccn/	.
.	16qqaaan/JJ	.
.	16qqcccc-X/LL	.
.	16qqbbb-/	.
.	16qqccccn/	.
.	16qqaaa/JJ	.
.	16qqcccc-X/LL	.
.	16qqbbb-/	.
.	16qqccccn/	.
.	16qqaaa/JJ	.
.	16qqcccc-X/LL	.
.	16qqbbb-/	.
.	16qqccccn/	.
.	16qqaaa/JJ	.
.	16qqcccc-X/LL	.
.	16qqbbb-/	.
.	16qqccccn/	.
.	16qqaaa/JJ	.
.	16qqcccc-X/LL	.
.	16qqbbb-/	.
.	16qqccccn/	.
.	16qqaaa/JJ	.
.	16qqcccc-X/LL	.
.	16qqbbb-/	.
.	16qqccccn/	.
!	!LO:TX:b:t=cres.	!
.	16qqaaa/JJ	.
.	16qqcccc-X/LL	.
.	16qqbbb-/	.
.	16qqccccn/	.
*clefF4	*	*
.	16qqaaa/JJ	[
!!linebreak:original
.	16qqcccc-X/LL	.
.	16qqbbb-/	.
.	16qqccccn/	.
.	16qqaaa/JJ	.
.	16qqcccc-X/LL	.
.	16qqbbb-/	.
.	16qqccccn/	.
.	16qqaaa/JJ	.
.	16qqcccc-X/LL	>
.	16qqbbb-/	.
.	16qqccccn/	.
.	16qqaaa/JJ	>
.	16qqcccc-X/LL	.
.	16qqbbb-/	.
!	!LO:TX:b:t=dim.	!
.	16qqccccn/	.
.	16qqaaa/JJ	.
.	16qqcccc-X/LL	.
.	16qqbbb-/	.
.	16qqccccn/	]
.	16qqaaa/JJ	.
!	!LO:TX:b:t=Rall.	!
.	16qqbbb-/LL	.
.	16qqaaan/	.
.	16qqaaa-/	.
.	16qqggg/JJ	.
.	(<16qqfff/LL	.
.	16qqddd/	.
!	!LO:TX:b:t=smorz.	!
.	16qqeee-/	.
.	16qqcccny/JJ	.
*	*X8va	*
!	!LO:TX:a:t=loco.	!
.	16qqbb-/LL	.
.	16qqaa-/	.
.	16qqcc/	.
.	16qqdd/JJ)	.
=33	=33	=33
*^	*	*
!	!	!LO:TX:b:i:t=A Tempo.	!
*ped	*	*	*
!LO:TX:b:t=złamana belka	!	!	!
8ryy	(8EE-L	(8ee-L 8g	.
4B-	8B-	8b-	]
.	8BB-J	8ggJ	.
8ryy	8E-L	8ee-L 8g	.
4B-	8B-	8b-	.
.	8BB-J)	8ggJ	.
!LO:TX:b:t=złamana belka	!	!	!
8ryy	(8EE-L	8ee-L 8g	.
4B-	8B-	8b-	.
.	8BB-J	8ggJ	.
8ryy	8E-L	8ee-L 8g	.
[4B-	>8B-	8b-	.
.	8BB-J)	8ggJ)	.
*v	*v	*	*
=34	=34	=34
4.B-] 4.E-	4.ee- 4.g/	ppp
*clefG2	*	*
4.b- 4.e-	4.eee- 4.gg	.
*clefF4	*	*
2BB-;<\ 2EE-\	2e-; 2G	.
*	*Xped	*
==	==	==
*-	*-	*-
!!!title: @{OTL}; @{OPS} @{ONM} publisher: @{OCL}
!!!RDF**kern: > = above
!!!RDF**kern: < = below
!!!ENC: Wojciech Jakubiak-Danek
!!!END: 2018-06-18
!!!EED: Tomasz Sierawski
!!!EST: 2018-06-19
!!!RDF**kern: i = editorial accidental